22x22/apps/wolfram-player.svg

<svg xmlns="http://www.w3.org/2000/svg" width="22" height="22" version="1.1">
 <path style="opacity:0.2;fill-rule:evenodd" d="m 11.023791,0.50052156 a 0.59912637,0.60006444 0 0 0 -0.542319,0.2968772 L 8.6873933,3.8739838 5.4299696,2.4417468 A 0.59912637,0.60006444 0 0 0 4.5931875,3.0509311 L 4.9473228,6.5964649 1.4714895,7.3554548 A 0.59912637,0.60006444 0 0 0 1.1518704,8.3410091 L 3.5190798,11.00099 1.1522604,13.661362 a 0.59912637,0.60006444 0 0 0 0.3198141,0.985359 l 3.4760288,0.758209 -0.3533558,3.545535 a 0.59912637,0.60006444 0 0 0 0.8369769,0.608987 l 3.2572284,-1.432823 1.7948592,3.076195 a 0.59912637,0.60006444 0 0 0 1.034521,-2.01e-4 l 1.794274,-3.076584 3.257229,1.432042 a 0.59912637,0.60006444 0 0 0 0.836977,-0.609185 l -0.354137,-3.545143 3.475834,-0.759186 a 0.59912637,0.60006444 0 0 0 0.31962,-0.985554 l -2.36721,-2.65978 2.366819,-2.6605675 A 0.59912637,0.60006444 0 0 0 20.527926,7.3533065 L 17.051702,6.5950978 17.405058,3.0495638 A 0.59912637,0.60006444 0 0 0 16.56808,2.440575 L 13.311047,3.8735932 11.515993,0.79720356 a 0.59912637,0.60006444 0 0 0 -0.492202,-0.296682 z"/>
 <path style="fill:#d6342a;fill-rule:evenodd" d="M 11.023791,5.2115696e-4 A 0.59912637,0.60006444 0 0 0 10.481472,0.29739836 L 8.6873933,3.3739834 5.4299696,1.9417464 A 0.59912637,0.60006444 0 0 0 4.5931875,2.5509307 L 4.9473228,6.0964645 1.4714895,6.8554544 A 0.59912637,0.60006444 0 0 0 1.1518704,7.8410087 l 2.3672094,2.6599803 -2.3668194,2.660372 a 0.59912637,0.60006444 0 0 0 0.3198141,0.985359 l 3.4760288,0.758209 -0.3533558,3.545535 a 0.59912637,0.60006444 0 0 0 0.8369769,0.608987 l 3.2572284,-1.432823 1.7948592,3.076195 a 0.59912637,0.60006444 0 0 0 1.034521,-2.01e-4 l 1.794274,-3.076584 3.257229,1.432042 a 0.59912637,0.60006444 0 0 0 0.836977,-0.609185 l -0.354137,-3.545143 3.475834,-0.759186 a 0.59912637,0.60006444 0 0 0 0.31962,-0.985554 l -2.36721,-2.65978 2.366819,-2.6605669 A 0.59912637,0.60006444 0 0 0 20.527926,6.8533061 L 17.051702,6.0950974 17.405058,2.5495634 A 0.59912637,0.60006444 0 0 0 16.56808,1.9405746 L 13.311047,3.3735928 11.515993,0.29720316 A 0.59912637,0.60006444 0 0 0 11.023791,5.2115696e-4 Z"/>
 <path style="opacity:0.2;fill:#f4f4f7;fill-rule:evenodd" d="M 11.023438,-2.4303727e-7 A 0.59912637,0.60006444 0 0 0 10.482422,0.29687476 L 8.6875,3.3730467 5.4296875,1.941406 A 0.59912637,0.60006444 0 0 0 4.59375,2.550781 L 4.619141,2.8066404 A 0.59912637,0.60006444 0 0 1 5.4296875,2.441406 L 8.6875,3.8730467 10.482422,0.79687476 a 0.59912637,0.60006444 0 0 1 0.541016,-0.296875 0.59912637,0.60006444 0 0 1 0.492187,0.296875 L 13.310547,3.8730467 16.568359,2.441406 a 0.59912637,0.60006444 0 0 1 0.810547,0.3652344 l 0.02539,-0.2578125 A 0.59912637,0.60006444 0 0 0 16.568359,1.941406 L 13.310547,3.3730467 11.515625,0.29687476 A 0.59912637,0.60006444 0 0 0 11.023438,-2.4303727e-7 Z M 4.8984375,6.1054686 l -3.4277344,0.75 A 0.59912637,0.60006444 0 0 0 1.0546875,7.691406 0.59912637,0.60006444 0 0 1 1.4707031,7.3554686 L 4.9472656,6.5957029 Z m 12.2011715,0 -0.04883,0.4902343 3.476563,0.7578125 a 0.59912637,0.60006444 0 0 1 0.41797,0.3359375 0.59912637,0.60006444 0 0 0 -0.417968,-0.8359375 z M 18.703125,10.75 18.480469,11 l 2.367187,2.658203 a 0.59912637,0.60006444 0 0 1 0.09766,0.150391 0.59912637,0.60006444 0 0 0 -0.09766,-0.650391 z m -15.40625,0.002 -2.1445312,2.410156 a 0.59912637,0.60006444 0 0 0 -0.097656,0.648438 0.59912637,0.60006444 0 0 1 0.097656,-0.148438 L 3.5195312,11.002 Z m 1.6015625,4.642578 -0.3027344,3.056641 a 0.59912637,0.60006444 0 0 0 0.025391,0.242187 l 0.3261718,-3.289062 z m 12.2031245,0 -0.04883,0.0098 0.328125,3.285156 a 0.59912637,0.60006444 0 0 0 0.02539,-0.240234 z"/>
 <path style="opacity:0.2" d="M 10.193359,6.4999998 C 7.8347471,6.4999734 5.999927,8.3916758 6,10.615234 c 3.35e-5,2.223486 1.6570887,3.884792 4.015625,3.884766 2.973285,-0.183424 3.564141,-4.256879 0.970703,-3.779297 -0.0313,0.09678 0.727205,0.375361 0.78125,0.882813 0.106227,0.997402 -0.721943,1.599505 -1.755859,1.410156 C 9.25632,12.875329 8.3450677,12.266217 8.1679688,11.660156 8.0042237,11.099789 8.0858756,10.427094 8.2597656,9.9804688 9.080711,7.8718815 11.978287,7.3134021 13,7.3398436 12.200651,6.7665824 11.321793,6.5010991 10.193359,6.4999998 Z m 1.791016,2 c -2.973285,0.183424 -3.5641411,4.2568792 -0.970703,3.7792972 0.0313,-0.09678 -0.727205,-0.375361 -0.78125,-0.882813 -0.106227,-0.997402 0.721943,-1.5995052 1.755859,-1.4101562 0.755399,0.1383432 1.668604,0.7474552 1.845703,1.3535162 0.163745,0.560367 0.08209,1.233062 -0.0918,1.679687 C 12.921241,15.128118 10.021713,15.686597 9,15.660156 9.799349,16.233417 10.678207,16.498901 11.806641,16.5 14.165254,16.500026 16.000073,14.608324 16,12.384766 15.999966,10.16128 14.342912,8.4999738 11.984375,8.4999998 Z"/>
 <path style="fill:#f4f4f7" d="M 10.193359,5.9999998 C 7.8347471,5.9999734 5.999927,7.8916758 6,10.115234 6.0000335,12.33872 7.6570887,14.000026 10.015625,14 c 2.973285,-0.183424 3.564141,-4.2568792 0.970703,-3.779297 -0.0313,0.09678 0.727205,0.375361 0.78125,0.882813 0.106227,0.997402 -0.721943,1.599505 -1.755859,1.410156 C 9.25632,12.375329 8.3450677,11.766217 8.1679688,11.160156 8.0042237,10.599789 8.0858756,9.9270938 8.2597656,9.4804688 9.080711,7.3718815 11.978287,6.8134021 13,6.8398436 12.200651,6.2665824 11.321793,6.0010991 10.193359,5.9999998 Z m 1.791016,2 c -2.973285,0.183424 -3.5641411,4.2568792 -0.970703,3.7792972 0.0313,-0.09678 -0.727205,-0.375361 -0.78125,-0.882813 -0.106227,-0.9974022 0.721943,-1.5995052 1.755859,-1.4101562 0.755399,0.138343 1.668604,0.7474552 1.845703,1.3535162 0.163745,0.560367 0.08209,1.233062 -0.0918,1.679687 C 12.921241,14.628118 10.021713,15.186597 9,15.160156 9.799349,15.733417 10.678207,15.998901 11.806641,16 14.165254,16.000026 16.000073,14.108324 16,11.884766 15.999966,9.6612798 14.342912,7.9999738 11.984375,7.9999998 Z"/>
</svg>

<svg xmlns="http://www.w3.org/2000/svg" width="22" height="22"><path style="opacity:.2;fill-rule:evenodd" d="M11.024.5a.6.6 0 0 0-.543.297L8.687 3.874 5.43 2.442a.6.6 0 0 0-.837.609l.354 3.545-3.476.76a.6.6 0 0 0-.32.985l2.368 2.66-2.367 2.66a.6.6 0 0 0 .32.986l3.476.758-.353 3.545a.6.6 0 0 0 .837.61l3.257-1.433 1.795 3.076a.6.6 0 0 0 1.034 0l1.795-3.077 3.257 1.432a.6.6 0 0 0 .837-.61l-.354-3.544 3.476-.76a.6.6 0 0 0 .32-.985l-2.368-2.66 2.367-2.66a.6.6 0 0 0-.32-.986l-3.476-.758.353-3.545a.6.6 0 0 0-.837-.61l-3.257 1.434L11.516.797a.6.6 0 0 0-.492-.296z"/><path style="fill:#d6342a;fill-rule:evenodd" d="M11.024 0a.6.6 0 0 0-.543.297L8.687 3.374 5.43 1.942a.6.6 0 0 0-.837.609l.354 3.545-3.476.76a.6.6 0 0 0-.32.985l2.368 2.66-2.367 2.66a.6.6 0 0 0 .32.986l3.476.758-.353 3.545a.6.6 0 0 0 .837.61l3.257-1.433 1.795 3.076a.6.6 0 0 0 1.034 0l1.795-3.077 3.257 1.432a.6.6 0 0 0 .837-.61l-.354-3.544 3.476-.76a.6.6 0 0 0 .32-.985l-2.368-2.66 2.367-2.66a.6.6 0 0 0-.32-.986l-3.476-.758.353-3.545a.6.6 0 0 0-.837-.61l-3.257 1.434L11.516.297a.6.6 0 0 0-.492-.296z"/><path style="opacity:.2;fill:#f4f4f7;fill-rule:evenodd" d="M11.023 0a.6.6 0 0 0-.54.297L8.686 3.373 5.43 1.941a.6.6 0 0 0-.836.61l.025.256a.6.6 0 0 1 .81-.366l3.258 1.432L10.482.797A.6.6 0 0 1 11.023.5a.6.6 0 0 1 .493.297l1.795 3.076 3.257-1.432a.6.6 0 0 1 .81.366l.026-.258a.6.6 0 0 0-.836-.608l-3.257 1.432L11.516.297A.6.6 0 0 0 11.023 0zM4.898 6.105l-3.427.75a.6.6 0 0 0-.416.836.6.6 0 0 1 .416-.336l3.476-.76zm12.202 0-.05.49 3.477.759a.6.6 0 0 1 .418.335.6.6 0 0 0-.418-.835zm1.603 4.645-.223.25 2.368 2.658a.6.6 0 0 1 .097.15.6.6 0 0 0-.097-.65zm-15.406.002-2.145 2.41a.6.6 0 0 0-.097.649.6.6 0 0 1 .097-.149l2.368-2.66zm1.601 4.643-.302 3.056a.6.6 0 0 0 .025.242l.326-3.289zm12.204 0-.05.01.329 3.285a.6.6 0 0 0 .025-.24z"/><path style="opacity:.2" d="M10.193 6.5C7.835 6.5 6 8.392 6 10.615 6 12.84 7.657 14.5 10.016 14.5c2.973-.183 3.564-4.257.97-3.78-.031.097.728.376.782.884.106.997-.722 1.599-1.756 1.41-.756-.139-1.667-.748-1.844-1.354-.164-.56-.082-1.233.092-1.68.82-2.108 3.718-2.667 4.74-2.64-.8-.573-1.678-.839-2.807-.84zm1.791 2c-2.973.183-3.564 4.257-.97 3.78.031-.097-.728-.376-.782-.884-.106-.997.722-1.599 1.756-1.41.756.139 1.669.748 1.846 1.354.164.56.082 1.233-.092 1.68-.82 2.108-3.72 2.667-4.742 2.64.8.573 1.678.839 2.807.84 2.358 0 4.193-1.892 4.193-4.115C16 10.16 14.343 8.5 11.984 8.5z"/><path style="fill:#f4f4f7" d="M10.193 6C7.835 6 6 7.892 6 10.115 6 12.34 7.657 14 10.016 14c2.973-.183 3.564-4.257.97-3.78-.031.097.728.376.782.884.106.997-.722 1.599-1.756 1.41-.756-.139-1.667-.748-1.844-1.354-.164-.56-.082-1.233.092-1.68.82-2.108 3.718-2.667 4.74-2.64-.8-.573-1.678-.839-2.807-.84zm1.791 2c-2.973.183-3.564 4.257-.97 3.78.031-.097-.728-.376-.782-.884-.106-.997.722-1.599 1.756-1.41.756.139 1.669.748 1.846 1.354.164.56.082 1.233-.092 1.68-.82 2.108-3.72 2.667-4.742 2.64.8.573 1.678.839 2.807.84C14.165 16 16 14.108 16 11.885 16 9.66 14.343 8 11.984 8z"/></svg>
